X: 19102
T: Captain Young's Quick Step
C: W.Morrison
R: jig
Z: 1997 by John Chambers <jc:trillian.mit.edu>
B: RSCDS 19-10(II)
M: 6/8
L: 1/8
%--------------------
K: C
g/f/ \
| "C"edc Gcc | "F"Acc "C"Gcc | edc gec | "G7"Bdd d2g/f/ \
| "C"edc Gcc | ceg "F"c'ba | "C"gec "G7"dcd | "C"ecc c2 ||
|| e/f/ \
| "C"geg c'2a | geg c'2a | geg c'ge | "G7"fdd def \
| "C"geg c'2a | geg "F"c'ba | "C"gec "G7"dcd | "C"ecc c2 |]
%%center Book19/19102-Captain_Youngs_Quick_Step-1.abc

%%sep 1 1 500
%%sep 1 1 500

